src/assets/duotone/BatteryCharging.svg

<svg width="24" height="24" viewBox="0 0 24 24"  xmlns="http://www.w3.org/2000/svg">
<path opacity="0.4" d="M12.93 4.79004H7.35C3.25 4.79004 2 6.04004 2 10.14V13.86C2 17.96 3.25 19.21 7.35 19.21H12.93C17.03 19.21 18.28 17.96 18.28 13.86V10.14C18.28 6.04004 17.03 4.79004 12.93 4.79004Z" />
<path d="M20.4202 9.00047C20.2802 8.99047 20.1002 8.98047 19.9002 8.98047C19.5102 8.98047 19.2002 9.29047 19.2002 9.68047V14.3305C19.2002 14.7205 19.5102 15.0305 19.9002 15.0305C20.1002 15.0305 20.2702 15.0205 20.4402 15.0105C22.0002 14.8305 22.0002 13.7305 22.0002 12.9305V11.0705C22.0002 10.2705 22.0002 9.17047 20.4202 9.00047Z" />
<path d="M10.0102 16.2403C9.84018 16.2403 9.66018 16.1803 9.52018 16.0603C9.21018 15.7903 9.17018 15.3203 9.44018 15.0003L11.2402 12.8903C11.2502 12.8603 11.2402 12.8303 11.2202 12.8003C11.2002 12.7603 11.1602 12.7403 11.1102 12.7403H9.12018C8.53018 12.7403 8.01018 12.4403 7.71018 11.9303C7.42018 11.4203 7.42018 10.8203 7.71018 10.3103L9.42018 8.05027C9.67018 7.72027 10.1402 7.65027 10.4702 7.90027C10.8002 8.15027 10.8702 8.62027 10.6202 8.95027L8.97018 11.1403C9.00018 11.1003 9.00018 11.1403 9.02018 11.1903C9.04018 11.2303 9.08018 11.2503 9.13018 11.2503H11.1402C11.7302 11.2503 12.2502 11.5503 12.5502 12.0603C12.8402 12.5703 12.8402 13.1703 12.5502 13.6803C12.5302 13.7203 12.5002 13.7603 12.4702 13.7903L10.6002 15.9803C10.4402 16.1603 10.2302 16.2403 10.0102 16.2403Z" />
</svg>

<?xml version="1.0" encoding="UTF-8"?>
<svg width="24" height="24" viewBox="0 0 24 24" xmlns="http://www.w3.org/2000/svg">
 <path d="m12.93 4.79h-5.58c-4.1 0-5.35 1.25-5.35 5.35v3.72c0 4.1 1.25 5.35 5.35 5.35h5.58c4.1 0 5.35-1.25 5.35-5.35v-3.72c0-4.1-1.25-5.35-5.35-5.35z" opacity=".4"/>
 <path d="m20.42 9.0005c-0.14-0.01-0.32-0.02-0.52-0.02-0.39 0-0.7 0.31-0.7 0.7v4.65c0 0.39 0.31 0.7 0.7 0.7 0.2 0 0.37-0.01 0.54-0.02 1.56-0.18 1.56-1.28 1.56-2.08v-1.86c0-0.8 0-1.9-1.58-2.07z"/>
 <path d="m10.01 16.24c-0.17002 0-0.35002-0.06-0.49002-0.18-0.31-0.27-0.35-0.74-0.08-1.06l1.8-2.11c0.01-0.03 0-0.06-0.02-0.09-0.02-0.04-0.06-0.06-0.11-0.06h-1.99c-0.59 0-1.11-0.3-1.41-0.81-0.29-0.51-0.29-1.11 0-1.62l1.71-2.26c0.25-0.33 0.72002-0.4 1.05-0.15s0.4 0.72 0.15 1.05l-1.65 2.19c0.03-0.04 0.03 0 0.05 0.05 0.02 0.04 0.06 0.06 0.11 0.06h2.01c0.59 0 1.11 0.3 1.41 0.81 0.29 0.51 0.29 1.11 0 1.62-0.02 0.04-0.05 0.08-0.08 0.11l-1.87 2.19c-0.16 0.18-0.37 0.26-0.59 0.26z"/>
</svg>
